packages/sources/icons/src/vitamix/gift-fill.svg

<svg width="16" height="16" viewBox="0 0 16 16" fill="none" xmlns="http://www.w3.org/2000/svg">
<path fill-rule="evenodd" clip-rule="evenodd" d="M11.6395 2.4194C11.2117 1.74299 10.467 1.33304 9.66667 1.33331C9.03945 1.33206 8.43846 1.58482 8.00067 2.03398C7.20337 1.21769 5.93267 1.09777 4.99674 1.75048C4.0608 2.40319 3.73421 3.63704 4.22467 4.66731L2 4.66664C1.63181 4.66664 1.33334 4.96512 1.33334 5.33331V7.33331C1.33334 7.7015 1.63181 7.99998 2 7.99998H14C14.3682 7.99998 14.6667 7.7015 14.6667 7.33331V5.33331C14.6667 4.96512 14.3682 4.66664 14 4.66664L11.7753 4.66731C12.1186 3.9443 12.0673 3.09581 11.6395 2.4194ZM13.3333 13.3333V8.66664H2.66667V13.3333C2.66667 13.7015 2.96515 14 3.33334 14H12.6667C13.0349 14 13.3333 13.7015 13.3333 13.3333ZM6.33341 2.66664C5.8 2.66691 5.3607 3.08579 5.33506 3.61859C5.30943 4.15138 5.70649 4.6105 6.23741 4.66198L6.33341 4.66664H7.33341V3.66664C7.33339 3.15156 6.94211 2.72076 6.42941 2.67131L6.33341 2.66664ZM9.57067 2.67131L9.66667 2.66664L9.76267 2.67131C10.2752 2.721 10.6662 3.15173 10.6662 3.66664C10.6662 4.18155 10.2752 4.61229 9.76267 4.66198L9.66667 4.66664H8.66667V3.66664L8.67067 3.57064C8.71669 3.09406 9.09406 2.71697 9.57067 2.67131Z" fill="#001018"/>
</svg>

<svg width="16" height="16" fill="none" xmlns="http://www.w3.org/2000/svg"><path fill-rule="evenodd" clip-rule="evenodd" d="M11.64 2.42A2.333 2.333 0 0 0 8 2.033a2.333 2.333 0 0 0-3.775 2.633H2a.667.667 0 0 0-.667.666v2c0 .369.299.667.667.667h12a.667.667 0 0 0 .667-.667v-2A.667.667 0 0 0 14 4.667h-2.225a2.333 2.333 0 0 0-.136-2.248zm1.693 10.913V8.667H2.667v4.666c0 .368.298.667.666.667h9.334a.667.667 0 0 0 .666-.667zm-7-10.666a1 1 0 0 0-.096 1.995l.096.005h1v-1a1 1 0 0 0-.904-.996l-.096-.004zm3.238.004.096-.004.096.004a1 1 0 0 1 0 1.991l-.096.005h-1v-1l.004-.096a1 1 0 0 1 .9-.9z" fill="#001018"/></svg>
